img/icons/favicon.svg

<svg width="16" height="16" fill="none" xmlns="http://www.w3.org/2000/svg"><path fill="#81B3D3" d="M0 0h16v16H0z"/><path d="M5.36155 10.0419c.01129.0121.017.024.017.0361.01144 0 .02272.0059.03401.0179.30634.3598.65256.6957 1.03835 1.0075.38579.2998.82845.4617 1.32769.4857.01143 0 .02272.0062.034.0181h.05116c.01128 0 .02272.0059.034.018h.18718c.05687-.0121.10788-.024.15332-.0361.1819-.0361.35537-.1094.51067-.2158.17003-.108.30063-.24.39136-.3958l.03415-.0721.03401-.0719c.02272-.0839.03972-.1619.05116-.2339.01128-.0719.017-.1379.017-.1978 0-.3238-.13632-.5937-.40851-.80966-.2538-.2235-.5416-.39992-.85117-.52178-.11643-.04541-.23593-.08145-.3575-.10783a4.414388 4.414388 0 00-.32335-.09001h-.034c-.01144-.01192-.02272-.01797-.03401-.01797-.55194-.14214-1.08006-.3727-1.56602-.68367-.4881-.32379-.82274-.78561-1.00435-1.38532a16.185837 16.185837 0 01-.10216-.37786 4.551357 4.551357 0 01-.05101-.41364.557267.557267 0 01-.017-.12611v-.43177c.01129-.09589.02829-.19179.05101-.28784.03524-.24499.09221-.48592.17017-.71962.07945-.23982.18161-.45578.30635-.64757.36321-.63581.82845-1.09159 1.39585-1.36735C7.02974 2.13788 7.63114 2 8.25526 2c.14761 0 .29506.01193.44266.03594.1594.01204.31833.03002.47652.05392.41394.07359.81913.19425 1.20856.35988.4085.16794.783.36577 1.1235.59366l-.9362 2.21292c-.3055-.23927-.6302-.44994-.97034-.62961-.34035-.18002-.70914-.26987-1.10636-.26987h-.13632c-.26091.03594-.50481.16189-.73186.3777-.2269.20388-.34035.42588-.34035.6657v.10798c.01129.03595.02829.07189.05101.10798.02272.08397.06244.1619.11917.23394.05672.07188.11917.13788.18718.19783.12488.10799.30634.20992.54482.30582.23819.08397.48795.16794.74901.25191.21546.05995.42536.11991.62969.17986.20433.04803.3745.09605.51065.14408.6354.23982 1.1121.64153 1.4299 1.2053.3176.55168.4822 1.13945.4935 1.76302v.09001c0 .07203-.0056.14403-.017.21593v.1979c-.068.6237-.2609 1.2173-.5787 1.7811-.3063.5638-.7206.9955-1.2425 1.2955-.19376.0962-.39272.1803-.59585.2517-.20286.0597-.40716.1137-.61269.1621a3.747653 3.747653 0 01-.51067.0719c-.16363.0235-.32854.0355-.49367.0359h-.18733c-.68084-.0239-1.35026-.1799-2.00853-.4679-.65813-.2997-1.24253-.6956-1.75306-1.1873l1.36155-2.3029z" fill="#fff"/></svg>

<svg width="16" height="16" viewBox="0 0 16 16" fill="none" xmlns="http://www.w3.org/2000/svg">
<rect width="16" height="16" fill="#81B3D3"/>
<path d="M5.36155 10.0419C5.37284 10.054 5.37855 10.0659 5.37855 10.078C5.38999 10.078 5.40127 10.0839 5.41256 10.0959C5.7189 10.4557 6.06512 10.7916 6.45091 11.1034C6.8367 11.4032 7.27936 11.5651 7.7786 11.5891C7.79003 11.5891 7.80132 11.5953 7.8126 11.6072H7.86376C7.87504 11.6072 7.88648 11.6131 7.89776 11.6252H8.08494C8.14181 11.6131 8.19282 11.6012 8.23826 11.5891C8.42016 11.553 8.59363 11.4797 8.74893 11.3733C8.91896 11.2653 9.04956 11.1333 9.14029 10.9775L9.17444 10.9054L9.20845 10.8335C9.23117 10.7496 9.24817 10.6716 9.25961 10.5996C9.27089 10.5277 9.27661 10.4617 9.27661 10.4018C9.27661 10.078 9.14029 9.8081 8.8681 9.59214C8.6143 9.36864 8.3265 9.19222 8.01693 9.07036C7.9005 9.02495 7.781 8.98891 7.65943 8.96253C7.55271 8.92841 7.44486 8.89838 7.33608 8.87252H7.30208C7.29064 8.8606 7.27936 8.85455 7.26807 8.85455C6.71613 8.71241 6.18801 8.48185 5.70205 8.17088C5.21395 7.84709 4.87931 7.38527 4.6977 6.78556C4.66214 6.66007 4.62808 6.53411 4.59554 6.4077C4.57224 6.27077 4.55522 6.13273 4.54453 5.99406C4.53408 5.9529 4.52837 5.91056 4.52753 5.86795V5.43618C4.53882 5.34029 4.55582 5.24439 4.57854 5.14834C4.61378 4.90335 4.67075 4.66242 4.74871 4.42872C4.82816 4.1889 4.93032 3.97294 5.05506 3.78115C5.41827 3.14534 5.88351 2.68956 6.45091 2.4138C7.02974 2.13788 7.63114 2 8.25526 2C8.40287 2 8.55032 2.01193 8.69792 2.03594C8.85732 2.04798 9.01625 2.06596 9.17444 2.08986C9.58838 2.16345 9.99357 2.28411 10.383 2.44974C10.7915 2.61768 11.166 2.81551 11.5065 3.0434L10.5703 5.25632C10.2648 5.01705 9.9401 4.80638 9.59996 4.62671C9.25961 4.44669 8.89082 4.35684 8.4936 4.35684H8.35728C8.09637 4.39278 7.85247 4.51873 7.62542 4.73454C7.39852 4.93842 7.28507 5.16042 7.28507 5.40024V5.50822C7.29636 5.54417 7.31336 5.58011 7.33608 5.6162C7.3588 5.70017 7.39852 5.7781 7.45525 5.85014C7.51197 5.92202 7.57442 5.98802 7.64243 6.04797C7.76731 6.15596 7.94877 6.25789 8.18725 6.35379C8.42544 6.43776 8.6752 6.52173 8.93626 6.6057C9.15172 6.66565 9.36162 6.72561 9.56595 6.78556C9.77028 6.83359 9.94045 6.88161 10.0766 6.92964C10.712 7.16946 11.1887 7.57117 11.5065 8.13494C11.8241 8.68662 11.9887 9.27439 12 9.89796V9.98797C12 10.06 11.9944 10.132 11.983 10.2039V10.4018C11.915 11.0255 11.7221 11.6191 11.4043 12.1829C11.098 12.7467 10.6837 13.1784 10.1618 13.4784C9.96804 13.5746 9.76908 13.6587 9.56595 13.7301C9.36309 13.7898 9.15879 13.8438 8.95326 13.8922C8.7847 13.9279 8.61411 13.9519 8.44259 13.9641C8.27896 13.9876 8.11405 13.9996 7.94892 14H7.76159C7.08075 13.9761 6.41133 13.8201 5.75306 13.5321C5.09493 13.2324 4.51053 12.8365 4 12.3448L5.36155 10.0419Z" fill="white"/>
</svg>
